icons/evolvere-blue-folders-flat-vivid-dark-fallback/mimetypes/64/csv.svg

<svg xmlns="http://www.w3.org/2000/svg" viewBox="0 0 64 64"><path d="m4 0h60v62h-60z" fill="#149abc"/><path d="m60 2v31l-24.313 29h28.313v-25-31l-4-4" fill="#003044" fill-opacity=".257"/><path d="m0 2h60v31l-26 31h-34z" fill="#2bbadd" color="#000"/><path d="m34 64l26-31c-2.329 2.776-4.361 3-11 3h-12v15c0 6.644.044 9.37-3 13" fill="#00a0ca"/><path d="m5 7v4h6v-4zm9 0v4h6v-4zm9 0v4h6v-4zm-18 7v2h6v-2zm9 0v2h6v-2zm9 0v2h6v-2zm-18 5v2h6v-2zm9 0v2h6v-2zm9 0v2h6v-2z" fill="#e3f5fa" color="#000"/></svg>

<?xml version="1.0" encoding="UTF-8" standalone="no"?>
<!-- Created with Inkscape (http://www.inkscape.org/) -->

<svg
   xmlns:dc="http://purl.org/dc/elements/1.1/"
   xmlns:cc="http://creativecommons.org/ns#"
   xmlns:rdf="http://www.w3.org/1999/02/22-rdf-syntax-ns#"
   xmlns:svg="http://www.w3.org/2000/svg"
   xmlns="http://www.w3.org/2000/svg"
   xmlns:sodipodi="http://sodipodi.sourceforge.net/DTD/sodipodi-0.dtd"
   xmlns:inkscape="http://www.inkscape.org/namespaces/inkscape"
   version="1.1"
   width="64"
   height="64"
   id="svg13094"
   inkscape:version="0.48.4 r9939"
   sodipodi:docname="csv.svg">
  <sodipodi:namedview
     pagecolor="#ffffff"
     bordercolor="#666666"
     borderopacity="1"
     objecttolerance="10"
     gridtolerance="10"
     guidetolerance="10"
     inkscape:pageopacity="0"
     inkscape:pageshadow="2"
     inkscape:window-width="1920"
     inkscape:window-height="1022"
     id="namedview58"
     showgrid="false"
     inkscape:zoom="11.313708"
     inkscape:cx="28.903244"
     inkscape:cy="31.755529"
     inkscape:window-x="-5"
     inkscape:window-y="23"
     inkscape:window-maximized="1"
     inkscape:current-layer="svg13094"
     inkscape:snap-bbox="true"
     inkscape:bbox-paths="true"
     inkscape:bbox-nodes="true"
     inkscape:snap-bbox-edge-midpoints="true"
     inkscape:snap-bbox-midpoints="true"
     inkscape:object-paths="true"
     inkscape:snap-intersection-paths="true"
     inkscape:object-nodes="true"
     inkscape:snap-smooth-nodes="true"
     inkscape:snap-midpoints="true"
     inkscape:snap-object-midpoints="true"
     inkscape:snap-center="true"
     showborder="false">
    <inkscape:grid
       type="xygrid"
       id="grid3101"
       empspacing="5"
       visible="true"
       enabled="true"
       snapvisiblegridlinesonly="true" />
  </sodipodi:namedview>
  <defs
     id="defs11" />
  <metadata
     id="metadata13099">
    <rdf:RDF>
      <cc:Work
         rdf:about="">
        <dc:format>image/svg+xml</dc:format>
        <dc:type
           rdf:resource="http://purl.org/dc/dcmitype/StillImage" />
        <dc:title />
      </cc:Work>
    </rdf:RDF>
  </metadata>
  <path
     inkscape:connector-curvature="0"
     d="M 4,0 64,0 64,62 4,62 z"
     id="path3960"
     style="fill:#149abc;fill-opacity:1;fill-rule:nonzero" />
  <path
     style="fill:#003044;fill-rule:nonzero;fill-opacity:0.25701755"
     d="M 60 2 L 60 33 L 35.6875 62 L 64 62 L 64 37 L 64 6 L 60 2 z "
     id="path3900" />
  <path
     inkscape:connector-curvature="0"
     d="M 0,2 60,2 60,33 34,64 0,64 z"
     id="path3982"
     style="fill:#2bbadd;fill-rule:nonzero;color:#000000;fill-opacity:1;stroke:none;stroke-width:1;marker:none;visibility:visible;display:inline;overflow:visible;enable-background:accumulate" />
  <path
     inkscape:connector-curvature="0"
     d="M 34,64 60,33 c -2.328567,2.776369 -4.36141,3 -11,3 H 37 v 15 c 0,6.64407 0.04437,9.37018 -3,13 z"
     id="path4278"
     style="fill:#00a0ca;fill-rule:nonzero;fill-opacity:1" />
  <path
     style="color:#000000;fill:#e3f5fa;fill-opacity:1;fill-rule:nonzero;stroke:none;stroke-width:0.97735554000000002;marker:none;visibility:visible;display:inline;overflow:visible;enable-background:accumulate"
     d="m 5,7 0,4 6,0 0,-4 z m 9,0 0,4 6,0 0,-4 z m 9,0 0,4 6,0 0,-4 z m -18,7 0,2 6,0 0,-2 z m 9,0 0,2 6,0 0,-2 z m 9,0 0,2 6,0 0,-2 z m -18,5 0,2 6,0 0,-2 z m 9,0 0,2 6,0 0,-2 z m 9,0 0,2 6,0 0,-2 z"
     id="rect3109"
     inkscape:connector-curvature="0"
     sodipodi:nodetypes="ccccccccccccccccccccccccccccccccccccccccccccc" />
</svg>
